X:1
T:Title
%%score { ( 1 3 ) | 2 }
L:1/8
M:4/4
K:F
V:1 treble nm="Grand Piano"
V:3 treble 
V:2 bass 
V:1
 z4 z2[Q:1/4=100] A>B | c>=B c>d c2 d>c | [GB]>[FA] [GB]>[Ac] [GB]2 [Ec]>[EB] | %3
 A>A A>A [Ac]>[Ac] [GB]>[FA] | [EG]6 A>B | c>=B c>d c2 d>c | [GB]>[FA] [GB]>[Ac] [GB]2 [Ec]>[EB] | %7
 [FA]>[Ac] [GB]>[FA] [EG]>[GB] [FA]>[EG] |[M:3/4] F6 |[M:1/4] A>c |[M:4/4] d4 z4 | c4 z4 | %12
 [GB]>[FA] [GB]>[FA] [EG]2 [FA]>[GB] | [Bd]>[Ac] [_A=B]>[=Ac] A2 A>c | d4 z4 | c4 z4 | %16
 A>c B>A [EG]>[EB] [FA]>[EG] |[M:3/4] F6 |] %18
V:2
 z4 z2 [F,F]>[F,G,F] | [F,A,F]>[F,_A,F] [F,=A,F]>[F,B,F] [F,A,F]2 [F,B,F]>[F,A,F] | %2
 [C,C]>[C,C] [C,C]>[C,C] [C,C]2 [C,G,]>[C,C] | %3
 [F,CF]>[F,CF] [F,CF]>[F,CF] [F,C]>[F,C] [E,C]>[F,C] | [C,C]6 [F,F]>[F,G,F] | %5
 [F,A,F]>[F,_A,F] [F,=A,F]>[F,B,F] [F,A,F]2 [F,B,F]>[F,A,F] | %6
 [C,C]>[C,C] [C,C]>[C,C] [C,C]2 [C,G,]>[C,C] | [F,C]>[F,C] [E,C]>[F,C] [C,C]>[C,C] [C,C]>[C,B,] | %8
[M:3/4] [F,A,]6 |[M:1/4] [F,CF]>[F,A,F] | %10
[M:4/4] [B,,B,][B,,B,][B,,B,][B,,B,] [B,,DB]2 [B,,DB]>[B,,B,] | %11
 [F,A,F][F,A,][F,A,][F,A,] [F,CF]2 [F,CF]>[F,A,F] | [C,C]>[C,C] [C,C]>[C,C] [C,C]2 [C,C]>[C,C] | %13
 [F,C]>[F,C] [F,C]>[F,C] [F,CF]2 [F,CF]>[F,A,F] | %14
 [B,,B,][B,,B,][B,,B,][B,,B,] [B,,DB]2 [B,,DB]>[B,,B,] | %15
 [F,A,F][F,A,][F,A,][F,A,] [F,CF]2 [F,A,C]>[F,B,C] | %16
 [F,CF]>[A,CF][K:bass] [G,CE]>[F,CF] [C,C]>[C,C] [C,C]>[C,B,] |[M:3/4] [F,A,]6 |] %18
V:3
 x8 | x8 | x8 | x8 | x8 | x8 | x8 | x8 |[M:3/4] x6 |[M:1/4] x2 |[M:4/4] FFFF f2 f>[Fd] | %11
 z FFF A2 A>c | x8 | x8 | FFFF f2 f>[Fd] | z FFF A2 F>G | x8 |[M:3/4] x6 |] %18

